!!!OTL: Tobie nad pomysl dowczip
**kern
*staff1
=--
*clefC1
*k[]
1f
2g
2a
=-
2f
2a
4g
4f
2e
=-
1f
2e
2e
=-
1f
1f
=-
1g
1f
1c
=-
!!linebreak:original
1f
2a
2a
=-
1b
1b
=-
1f
1f
=-
2g
1f
2e
1f
=-
1e
1g
2e
1f
=-
0e
0f
=-=
*-
!!title: @{OTL}, @{GTL}, ed. @{ENC}
!!!pag:
!!!GTL: Hymnbook C
!!!EFL: 
!!!YEM: Creative Commons CC/BY/NC/SA 4.0
!!!ENC: Marcin Konik
!!!END: 2015-0m-dd
!!!EED: Marcin Konik
!!!EEV: 
!!!ONB: Encoded in vim by Marcin Konik
!!!CharacterEncoding: utf-8
!!!RDF**kern: l=long note in original notation
!!!RDF**kern: i=editorial accidental
!!muse2ps: z14jc180F
!!!COM: Anonim
!!!CDT: [?]
!!!TXO: Polish
!!!ODT: 
!!!GTL: Hymnbook C
!!!ARL: Opactwo św. Wojciecha, Staniątki 
!!!voices:	1
